X:340
T: Pint of Ale
S: "First Collection of Traditional Irish Music" (M.Mulvihill)
Z: B.Black
L: 1/8
M: 4/4
R: reel
K: Gmix
BGGF GFDE|F2 cF CFAc|BGGF GFDE|FAdc BGGA|
BGGF GFDE|F2 cF CFAc|BG (3GFG GFDE|FAdc BGBd||
g^fgd Bcde|fefc ABce|g^fgd Bcdc|dg (3g^fg bga^f|
g^fgd Bcde|fefc ABcd|ed (3dcd DEFE|FAdc BG G2||
